!!!COM: Beethoven
!!!OTL: Six Variations on an Original Theme
!!!Variation: Variation 5 a
**function	**harm	**kern	**kern
*M2/4	*M2/4	*staff1	*staff2
*D:	*D:	*clefG2	*clefF4
*tb16	*	*k[f#c#]	*k[f#c#]
*	*	*M2/4	*M2/4
*	*	*D:	*D:
=-	=-	=	=
*	*	*^	*^
2T	2I	(16dLL	2d	2A	(16ALL
.	.	16f#	.	.	16F#
.	.	16a	.	.	16D
.	.	16f#JJ	.	.	16F#JJ
.	.	16aLL	.	.	16DLL
.	.	16f#	.	.	16F#
.	.	16a	.	.	16D
.	.	16ddJJ)	.	.	16AAJJ)
=	=	=82	=82	=82	=82
2T	2I	(16dLL	2d	2A	(16ALL
.	.	16f#	.	.	16F#
.	.	16a	.	.	16D
.	.	16f#JJ	.	.	16F#JJ
.	.	16aLL	.	.	16DLL
.	.	16f#	.	.	16F#
.	.	16a	.	.	16D
.	.	16ddJJ)	.	.	16AAJJ)
=	=	=83	=83	=83	=83
2T	2V7	(16eLL	8r	2A	(16ALL
.	.	16g	.	.	16G
.	.	16a	8c#	.	16E
.	.	16gJJ	.	.	16GJJ
.	.	16aLL	8r	.	16ELL
.	.	16g	.	.	16G
.	.	16a	8c#	.	16E
.	.	16cc#JJ)	.	.	16AAJJ)
=	=	=84	=84	=84	=84
2T	2I	(16dLL	2d	2A	(16ALL
.	.	16f#	.	.	16F#
.	.	16a	.	.	16D
.	.	16f#JJ	.	.	16F#JJ
.	.	16aLL	.	.	16DLL
.	.	16f#	.	.	16F#
.	.	16a	.	.	16D
.	.	16ddJJ)	.	.	16AAJJ)
=	=	=85	=85	=85	=85
2T	2I	(16dLL	2d	2A	(16ALL
.	.	16f#	.	.	16F#
.	.	16a	.	.	16D
.	.	16f#JJ	.	.	16F#JJ
.	.	16aLL	.	.	16DLL
.	.	16f#	.	.	16F#
.	.	16a	.	.	16D
.	.	16ddJJ)	.	.	16AAJJ)
*	*	*v	*v	*	*
*	*	*	*v	*v
=	=	=86	=86
*	*	*^	*^
2T	2I	(16dLL	2d	2A	(16ALL
.	.	16f#	.	.	16F#
.	.	16a	.	.	16D
.	.	16f#JJ	.	.	16F#JJ
.	.	16aLL	.	.	16DLL
.	.	16f#	.	.	16F#
.	.	16a	.	.	16D
.	.	16ddJJ)	.	.	16AAJJ)
=	=	=87	=87	=87	=87
2D	2V7b9	(16eLL	8r	2A	(16ALL
.	.	16g	.	.	16G
.	.	16a	8c#	.	16E
.	.	16gJJ	.	.	16GJJ
.	.	16aLL	8r	.	16ELL
.	.	16g	.	.	16G
.	.	16b-	8c#	.	16E
.	.	16gJJ)	.	.	16AAJJ)
=	=	=88	=88	=88	=88
2D	2viio65/V	(16dLL	4d	4G#	(16G#LL
.	.	16g#	.	.	16F
.	.	16b	.	.	16D
.	.	16g#JJ	.	.	16FJJ
.	.	16dLL	4d	4B	16BLL
.	.	16g#	.	.	16F
.	.	16b	.	.	16D
.	.	16g#JJ)	.	.	16FJJ)
*	*	*v	*v	*	* 
*	*	*	*v	*v
=	=	=89:|!|:	=89:|!|:
*-	*-	*-	*-
